X:1
T:Title
%%score 1 { 2 | 3 }
L:1/8
Q:1/4=97
M:4/4
K:G
V:1 treble nm="Grand Piano, Soprano"
V:2 bass nm="Choir Pad, Christ Is Thy Light, Cadbury"
V:3 bass 
V:1
 [DB]2 [DB][DB] [DB]3 [DB] | [EA][EG] [EG]>[CE] [B,D]3 [B,D] | [EG]2 [EG]2 [EG][EG][^DF][EG] | %3
w: By~Daniel~Brink~Towner,~1905 * * * *|||
 [EA]2 [E_B]2 [^D=B]4 | [DB]2 [DB][Gc] [Gd]3 [GB] | [EA][EG] [EG]>[CE] [B,D]3 [B,D] | %6
w: |||
 [CE][DF][DG][DA] [DB][Ec] [GB]>[FA] | G6 z2 | [EG]4 [EG]2 [CE]2 | [DG]8 |] %10
w: ||||
V:2
 G,2 G,G, G,3 G, | A,C C>G, G,3 G, | B,2 B,2 B,B,B,B, | A,2 E,2 F,4 | G,2 G,A, B,3[K:treble] D | %5
 CC C>G,[K:bass] G,3 G, | G,A,G,F, G,G, D>C | B,6 z2 | C4 C2 G,2 | B,8 |] %10
V:3
 z8 | C,C, C,>C, z4 | E,2 E,2 B,,B,,B,,E, | C,2 C,2 B,,4 | z2 z G, G,3 G, | C,C, C,>C, z4 | %6
 C,C,B,,D, z C, D,>D, | [G,,G,]6 z2 | C,4 C,2 C,2 | [G,,G,]8 |] %10

